src/actions/16/run-build-prune.svg

<svg xmlns="http://www.w3.org/2000/svg" viewBox="0 0 16 16">
  <defs id="defs3051">
    <style type="text/css" id="current-color-scheme">
      .ColorScheme-Text {
        color:#363636;
      }
      </style>
  </defs>
 <path style="fill:currentColor;fill-opacity:1;stroke:none" 
     d="M 7 2 L 7 3.1015625 A 5 5 0 0 0 5.2460938 3.8320312 L 4.4648438 3.0507812 L 3.0507812 4.4648438 L 3.8320312 5.2460938 A 5 5 0 0 0 3.1054688 7 L 2 7 L 2 9 L 3.1015625 9 A 5 5 0 0 0 3.8320312 10.753906 L 3.0507812 11.535156 L 4.4648438 12.949219 L 5.2460938 12.167969 A 5 5 0 0 0 7 12.894531 L 7 14 L 9 14 L 9 12.898438 L 9 11.869141 A 4 4 0 0 1 8 12 A 4 4 0 0 1 5.1308594 10.787109 A 4 4 0 0 1 4 8 A 4 4 0 0 1 5.2128906 5.1308594 A 4 4 0 0 1 8 4 A 4 4 0 0 1 10.869141 5.2128906 A 4 4 0 0 1 12 8 A 4 4 0 0 1 11.867188 9 L 12.894531 9 L 14 9 L 14 7 L 12.898438 7 A 5 5 0 0 0 12.167969 5.2460938 L 12.949219 4.4648438 L 11.535156 3.0507812 L 10.753906 3.8320312 A 5 5 0 0 0 9 3.1054688 L 9 2 L 7 2 z M 7 6 L 7 10 L 10 8 L 7 6 z M 10.666016 10 L 10 10.666016 L 11.333984 12 L 10 13.333984 L 10.666016 14 L 12 12.666016 L 13.333984 14 L 14 13.333984 L 12.666016 12 L 14 10.666016 L 13.333984 10 L 12 11.333984 L 10.666016 10 z "
     class="ColorScheme-Text"
     />
</svg>

<svg xmlns="http://www.w3.org/2000/svg" viewBox="0 0 16 16">
    <path d="M7 2v1.102a5 5 0 0 0-1.754.73l-.781-.781L3.05 4.465l.781.781A5 5 0 0 0 3.105 7H2v2h1.102a5 5 0 0 0 .73 1.754l-.781.781 1.414 1.414.781-.781A5 5 0 0 0 7 12.895V14h2V11.869A4 4 0 0 1 8 12a4 4 0 0 1-2.87-1.213A4 4 0 0 1 4 8a4 4 0 0 1 1.213-2.87A4 4 0 0 1 8 4a4 4 0 0 1 2.87 1.213A4 4 0 0 1 12 8a4 4 0 0 1-.133 1H14V7h-1.102a5 5 0 0 0-.73-1.754l.781-.781-1.414-1.414-.781.781A5 5 0 0 0 9 3.105V2H7zm0 4v4l3-2-3-2zm3.666 4-.666.666L11.334 12 10 13.334l.666.666L12 12.666 13.334 14l.666-.666L12.666 12 14 10.666 13.334 10 12 11.334 10.666 10z" style="fill:currentColor;fill-opacity:1;stroke:none;color:#050505;opacity:.7"/>
</svg>
